X: 22328
T: La Valse Des Cerfs-volants
R: waltz
M: 3/4
K: Eminor
|:"Em"B3 cBG|"D"A2 F2 G2|"C"E2 G2 d2|"D"F2 d2 e2|
"Em"B3 cBG|"D"E2 F2 G2|"C"E2 F2 G2|"D"E2 d2 c2|"C"c2 B3 "D"F:|
|:"Em"EF GE BG|"D"e2 d3 e|"C"eB B3 d|"D"dF F2 > G2|
"Em"EF GE BG|"D"e2 d3 e|"C"ef g3 B|"D"BA E3 B|"C"BA F2 "D"G2:|

